X:1
T: The Burning of the Piper's Hut
C:
R:Reel
Q: 232
K:Bm
M:4/4
L:1/8
f2|Bc de f4|fe fa f2 ed|c2 A2 e2 A2|cd ef e2 dc|
Bc de f4|fe fa f2 ed|c2 A2 f2 ef|d2 B2 B2 f2|
Bc de fB B1/2B1/2B|aB B1/2B1/2B f2 ed|c2 A2 e2 A2|cd ef e2 dc|
Bc de fB B1/2B1/2B|aB B1/2B1/2B f2 ed|c2 A2 f2 ef|d2 B2 B2:|
